dhis-2/dhis-support/dhis-support-system/src/main/resources/SVGs/cholera_negative.svg

<svg width="48" height="48" viewBox="0 0 48 48" fill="none" xmlns="http://www.w3.org/2000/svg">
<path fill-rule="evenodd" clip-rule="evenodd" d="M0 0V47.9994H47.9994V0H0ZM29.4526 3.99995H37.1445H41.4335H43.9744V6.50192V9.00579H41.4335H37.1445H31.9936V9.83388H29.4526H26.9137V7.33191V7.27531V6.50192C26.9137 5.11544 28.0456 3.99995 29.4526 3.99995ZM25.9587 10.2269H32.6206C33.1666 10.2269 33.6046 10.6599 33.6046 11.1969V12.8478C33.6046 13.3848 33.1666 13.8178 32.6206 13.8178H25.9587C25.4127 13.8178 24.9727 13.3848 24.9727 12.8478V11.1969C24.9727 10.6599 25.4127 10.2269 25.9587 10.2269ZM15.1618 13.8398C19.5748 13.8438 23.5707 16.3808 25.3567 20.3117C26.6447 17.5958 28.9386 14.8218 28.9386 14.8218C29.1896 14.5748 33.4476 20.1567 33.4466 23.2747C33.4476 26.3937 31.4436 28.9206 28.9726 28.9196C27.8087 28.9196 26.7577 28.3466 25.9627 27.4277C24.6947 32.2316 20.2517 35.5906 15.1618 35.5956C8.99729 35.5956 3.99995 30.7266 3.99995 24.7187C4.00025 18.7108 8.99729 13.8388 15.1618 13.8398ZM15.1618 15.6448C10.0199 15.6438 5.85173 19.7068 5.85153 24.7187C5.85173 29.7296 10.0199 33.7906 15.1618 33.7906C20.3027 33.7896 24.4717 29.7296 24.4727 24.7187C24.4717 19.7078 20.3027 15.6448 15.1618 15.6448ZM15.2168 17.5248C15.3698 17.5428 15.5208 17.5938 15.6558 17.6798C16.1978 18.0218 16.3088 18.7948 15.9078 19.4098C14.5598 20.6787 13.3778 22.1777 12.6838 24.3587C12.3828 24.8207 11.8829 25.0597 11.4219 25.0057C9.04629 24.5147 11.8999 20.1657 13.9528 18.1738C14.2538 17.7128 14.7558 17.4718 15.2168 17.5248ZM20.0368 18.0368C21.6117 18.1318 22.5597 22.2957 22.6017 24.7787C22.7767 25.4887 22.4147 26.1837 21.7887 26.3337C21.1627 26.4837 20.5167 26.0317 20.3417 25.3217C20.3387 23.4847 20.0517 21.6067 18.9278 19.6068C18.7958 19.0748 18.9658 18.5528 19.3238 18.2618C19.5738 18.0918 19.8118 18.0238 20.0368 18.0368ZM31.1636 20.4157C32.2526 25.8107 29.2956 25.8717 29.0716 26.7967C29.0066 27.2167 29.2596 27.4567 29.4626 27.6427C31.1866 28.6386 34.0126 23.0127 31.1636 20.4157ZM16.2808 21.8157C16.3988 21.8027 16.5188 21.8057 16.6328 21.8277C18.9648 22.4917 15.7888 26.6207 13.5918 28.4566C13.1458 29.0406 12.3718 29.2056 11.8569 28.8236C11.3429 28.4426 11.2879 27.6637 11.7339 27.0797C13.1748 25.9127 14.4668 24.5047 15.3238 22.3807C15.5748 22.0517 15.9278 21.8557 16.2808 21.8157ZM7.7343 22.7747C7.8121 22.7687 7.8901 22.7707 7.9667 22.7807C8.42629 22.8447 8.84969 23.2007 9.02139 23.7227C9.16288 25.5537 9.59098 27.4057 10.8629 29.3176C11.0349 29.8396 10.9049 30.3726 10.5699 30.6886C8.67869 32.1876 7.07291 27.2557 6.81041 24.4297C6.58192 23.7347 6.88931 23.0157 7.50191 22.8197C7.57841 22.7957 7.6564 22.7807 7.7343 22.7747ZM27.1231 29.8806C27.2471 29.7586 29.352 32.5196 29.352 34.0616C29.352 35.6046 28.363 36.8535 27.1411 36.8535C25.9191 36.8525 24.9281 35.6046 24.9281 34.0616C24.9281 32.5196 27.1231 29.8806 27.1231 29.8806ZM28.314 32.3726C28.918 35.3626 27.2821 35.3956 27.1581 35.9076C27.1221 36.1405 27.2611 36.2735 27.3731 36.3765C28.328 36.9285 29.893 33.8116 28.314 32.3726ZM31.576 38.4115C31.676 38.3135 33.361 40.5255 33.361 41.7615C33.361 42.9975 32.567 43.9995 31.588 43.9995C30.609 43.9995 29.816 42.9965 29.816 41.7615C29.816 40.5255 31.576 38.4115 31.576 38.4115ZM32.426 40.3005C33.009 42.8165 31.426 42.8475 31.307 43.2785C31.271 43.4745 31.409 43.5845 31.518 43.6715C32.441 44.1364 33.952 41.5115 32.426 40.3005Z" fill="#333333"/>
</svg>

<?xml version="1.0" encoding="UTF-8" standalone="no"?>
<!-- Created with Inkscape (http://www.inkscape.org/) -->
<svg id="svg8" xmlns:rdf="http://www.w3.org/1999/02/22-rdf-syntax-ns#" xmlns="http://www.w3.org/2000/svg" xmlns:osb="http://www.openswatchbook.org/uri/2009/osb" height="48" width="48" version="1.1" xmlns:cc="http://creativecommons.org/ns#" viewBox="0 0 12.7 12.7" xmlns:dc="http://purl.org/dc/elements/1.1/">
 <title id="title4753">UIO-icon</title>
 <metadata id="metadata5">
  <rdf:RDF>
   <cc:Work rdf:about="">
    <dc:format>image/svg+xml</dc:format>
    <dc:type rdf:resource="http://purl.org/dc/dcmitype/StillImage"/>
    <dc:title>UIO-icon</dc:title>
    <dc:creator>
     <cc:Agent>
      <dc:title>Joaquín Urbano</dc:title>
     </cc:Agent>
    </dc:creator>
    <dc:rights>
     <cc:Agent>
      <dc:title>GPL</dc:title>
     </cc:Agent>
    </dc:rights>
   </cc:Work>
  </rdf:RDF>
 </metadata>
 <g id="layer1" fill="#333" transform="translate(0,-284.3)">
  <path id="rect901" d="m0 0v48h48v-48h-48zm29.453 4h7.692 4.289 2.541v2.502 2.5039h-2.541-4.289-5.151v0.8281h-2.541-2.539v-2.502-0.0566-0.7734c0-1.3865 1.132-2.502 2.539-2.502zm-3.494 6.227h6.662c0.546 0 0.984 0.433 0.984 0.97v1.651c0 0.537-0.438 0.97-0.984 0.97h-6.662c-0.546 0-0.986-0.433-0.986-0.97v-1.651c0-0.537 0.44-0.97 0.986-0.97zm-10.797 3.613c4.413 0.004 8.409 2.541 10.195 6.472 1.288-2.716 3.582-5.49 3.582-5.49 0.251-0.247 4.509 5.335 4.508 8.453 0.001 3.119-2.003 5.646-4.474 5.645-1.164 0-2.215-0.573-3.01-1.492-1.268 4.804-5.711 8.163-10.801 8.168-6.1646 0-11.162-4.869-11.162-10.877 0.0003-6.008 4.9974-10.88 11.162-10.879zm0 1.805c-5.142-0.001-9.3102 4.062-9.3104 9.074 0.0002 5.011 4.1684 9.072 9.3104 9.072 5.141-0.001 9.31-4.061 9.311-9.072-0.001-5.011-4.17-9.074-9.311-9.074zm0.055 1.88c0.153 0.018 0.304 0.069 0.439 0.155 0.542 0.342 0.653 1.115 0.252 1.73-1.348 1.269-2.53 2.768-3.224 4.949-0.301 0.462-0.801 0.701-1.262 0.647-2.3756-0.491 0.478-4.84 2.531-6.832 0.301-0.461 0.803-0.702 1.264-0.649zm4.82 0.512c1.575 0.095 2.523 4.259 2.565 6.742 0.175 0.71-0.187 1.405-0.813 1.555s-1.272-0.302-1.447-1.012c-0.003-1.837-0.29-3.715-1.414-5.715-0.132-0.532 0.038-1.054 0.396-1.345 0.25-0.17 0.488-0.238 0.713-0.225zm11.127 2.379c1.089 5.395-1.868 5.456-2.092 6.381-0.065 0.42 0.188 0.66 0.391 0.846 1.724 0.996 4.55-4.63 1.701-7.227zm-14.883 1.4c0.118-0.013 0.238-0.01 0.352 0.012 2.332 0.664-0.844 4.793-3.041 6.629-0.446 0.584-1.22 0.749-1.735 0.367-0.514-0.381-0.569-1.16-0.123-1.744 1.441-1.167 2.733-2.575 3.59-4.699 0.251-0.329 0.604-0.525 0.957-0.565zm-8.5466 0.959c0.0778-0.006 0.1558-0.004 0.2324 0.006 0.4596 0.064 0.883 0.42 1.0547 0.942 0.1415 1.831 0.5696 3.683 1.8415 5.595 0.172 0.522 0.042 1.055-0.293 1.371-1.8912 1.499-3.497-3.433-3.7595-6.259-0.2285-0.695 0.0789-1.414 0.6915-1.61 0.0765-0.024 0.1545-0.039 0.2324-0.045zm19.389 7.106c0.124-0.122 2.229 2.639 2.229 4.181 0 1.543-0.989 2.792-2.211 2.792-1.222-0.001-2.213-1.249-2.213-2.792 0-1.542 2.195-4.181 2.195-4.181zm1.191 2.492c0.604 2.99-1.032 3.023-1.156 3.535-0.036 0.233 0.103 0.366 0.215 0.469 0.955 0.552 2.52-2.565 0.941-4.004zm3.262 6.039c0.1-0.098 1.785 2.114 1.785 3.35s-0.794 2.238-1.773 2.238-1.772-1.003-1.772-2.238c0-1.236 1.76-3.35 1.76-3.35zm0.85 1.889c0.583 2.516-1 2.547-1.119 2.978-0.036 0.196 0.102 0.306 0.211 0.393 0.923 0.465 2.434-2.16 0.908-3.371z" fill-rule="evenodd" transform="matrix(.26458 0 0 .26458 0 284.3)"/>
 </g>
</svg>
